src/assets/selectIcons/anello_4.svg

<svg xmlns="http://www.w3.org/2000/svg" viewBox="0 0 512 512" style="height: 512px; width: 512px;"><path d="M0 0h512v512H0z" fill="#000" fill-opacity="1"></path><g class="" transform="translate(0,0)" style=""><path d="M257.42 63.95c-64.054 0-122.07 10.41-164.908 27.755-21.42 8.673-39.093 19.056-51.87 31.29-12.78 12.232-20.822 26.845-20.822 42.724 0 1.62.106 3.225.27 4.82v.528c.132 1.02.305 2.038.496 3.055.077.427.167.85.256 1.275.075.354.152.708.234 1.06.13.56.266 1.117.414 1.67.11.414.232.826.352 1.24.106.36.205.722.32 1.08 7.19 23.116 29.692 45.078 64.668 62.488 2.903 1.444 5.892 2.85 8.95 4.222l15.234-20.418c-3.964-1.39-7.798-2.835-11.49-4.33-19.885-8.052-35.64-17.585-45.962-27.467-10.322-9.88-15.054-19.58-15.054-29.224 0-9.644 4.732-19.345 15.054-29.226 10.323-9.88 26.077-19.414 45.963-27.467C139.3 92.923 195.41 82.64 257.42 82.64c62.01 0 118.123 10.283 157.896 26.387 19.887 8.053 35.64 17.586 45.96 27.467 10.323 9.88 15.058 19.582 15.058 29.225 0 9.642-4.735 19.342-15.057 29.223-10.322 9.882-26.074 19.415-45.96 27.467-3.7 1.498-7.544 2.946-11.518 4.34l15.173 20.34c3.004-1.35 5.94-2.734 8.793-4.154 29.935-14.9 50.73-33.136 60.613-52.575 4.24-7.72 6.64-15.99 6.64-24.64 0-15.88-8.04-30.493-20.82-42.726-12.778-12.233-30.45-22.616-51.87-31.29-42.84-17.345-100.856-27.753-164.91-27.753zm-56.797 73.933L110.263 259l13.82 17.676 41.745-52.45 61.21 66.16h-92.233l41.703 53.337V438.3h27.084v-85.087h18.687V438.3h25.777v-85.087h18.687V438.3h25.777v-85.087h18.69V438.3h27.087v-94.577l41.705-53.336h-92.238l61.21-66.162 41.745 52.455L404.542 259l-90.36-121.117h-113.56zm294.174 77.012c-13.66 17.35-34.022 32.486-58.703 44.77-4.234 2.108-8.608 4.136-13.11 6.087l-52.953 67.723c21.472-5.64 40.945-12.805 57.736-21.163 41.094-20.454 64.982-47.193 67.03-74.703v-22.715zm-474.707.36v25.19c3.425 26.506 27.06 52.117 66.74 71.868 16.86 8.39 36.422 15.58 57.996 21.23l-52.896-67.65c-4.615-1.993-9.092-4.07-13.426-6.227-24.51-12.2-44.758-27.213-58.414-44.412zm237.312 62.126l20.903 55.58h-41.807l20.904-55.58zm237.395 6.89c-13.66 17.352-34.022 32.49-58.703 44.775-22.777 11.337-49.55 20.453-79.11 26.803v22.04c26.826-5.238 50.936-12.497 71.166-21.247 21.532-9.313 38.617-20.33 49.916-31.878 11.3-11.55 16.73-23.184 16.73-34.99v-5.5zm-474.707.36v5.143c0 11.805 5.433 23.44 16.732 34.99 11.3 11.548 28.384 22.564 49.916 31.878 20.21 8.742 44.29 15.996 71.082 21.233v-21.98c-29.643-6.352-56.486-15.485-79.316-26.848-24.51-12.2-44.758-27.215-58.414-44.414z" fill="#fff" fill-opacity="1"></path></g></svg>

<?xml version="1.0" encoding="UTF-8" standalone="no"?>
<!DOCTYPE svg PUBLIC "-//W3C//DTD SVG 1.1//EN" "http://www.w3.org/Graphics/SVG/1.1/DTD/svg11.dtd">
<svg width="100%" height="100%" viewBox="0 0 512 512" version="1.1" xmlns="http://www.w3.org/2000/svg" xmlns:xlink="http://www.w3.org/1999/xlink" xml:space="preserve" xmlns:serif="http://www.serif.com/" style="fill-rule:evenodd;clip-rule:evenodd;stroke-linejoin:round;stroke-miterlimit:2;">
    <rect x="0" y="0" width="512" height="512" style="fill-rule:nonzero;"/>
    <g>
        <path d="M257.42,63.95C193.366,63.95 135.35,74.36 92.512,91.705C71.092,100.378 53.419,110.761 40.642,122.995C27.862,135.227 19.82,149.84 19.82,165.719C19.82,167.339 19.926,168.944 20.09,170.539L20.09,171.067C20.222,172.087 20.395,173.105 20.586,174.122C20.663,174.549 20.753,174.972 20.842,175.397C20.917,175.751 20.994,176.105 21.076,176.457C21.206,177.017 21.342,177.574 21.49,178.127C21.6,178.541 21.722,178.953 21.842,179.367C21.948,179.727 22.047,180.089 22.162,180.447C29.352,203.563 51.854,225.525 86.83,242.935C89.733,244.379 92.722,245.785 95.78,247.157L111.014,226.739C107.05,225.349 103.216,223.904 99.524,222.409C79.639,214.357 63.884,204.824 53.562,194.942C43.24,185.062 38.508,175.362 38.508,165.718C38.508,156.074 43.24,146.373 53.562,136.492C63.885,126.612 79.639,117.078 99.525,109.025C139.3,92.923 195.41,82.64 257.42,82.64C319.43,82.64 375.543,92.923 415.316,109.027C435.203,117.08 450.956,126.613 461.276,136.494C471.599,146.374 476.334,156.076 476.334,165.719C476.334,175.361 471.599,185.061 461.277,194.942C450.955,204.824 435.203,214.357 415.317,222.409C411.617,223.907 407.773,225.355 403.799,226.749L418.972,247.089C421.976,245.739 424.912,244.355 427.765,242.935C457.7,228.035 478.495,209.799 488.378,190.36C492.618,182.64 495.018,174.37 495.018,165.72C495.018,149.84 486.978,135.227 474.198,122.994C461.42,110.761 443.748,100.378 422.328,91.704C379.488,74.359 321.472,63.951 257.418,63.951L257.42,63.95ZM494.797,284.271C481.137,301.623 460.775,316.761 436.094,329.046C413.317,340.383 386.544,349.499 356.984,355.849L356.984,377.889C383.81,372.651 407.92,365.392 428.15,356.642C449.682,347.329 466.767,336.312 478.066,324.764C489.366,313.214 494.796,301.58 494.796,289.774L494.796,284.274L494.797,284.271ZM20.09,284.631L20.09,289.774C20.09,301.579 25.523,313.214 36.822,324.764C48.122,336.312 65.206,347.328 86.738,356.642C106.948,365.384 131.028,372.638 157.82,377.875L157.82,355.895C128.177,349.543 101.334,340.41 78.504,329.047C53.994,316.847 33.746,301.832 20.09,284.633L20.09,284.631Z" style="fill:rgb(165,165,165);fill-rule:nonzero;"/>
        <path d="M200.623,137.883L314.182,137.883L404.542,259L390.719,276.68L348.974,224.225L287.764,290.387L380.002,290.387L338.297,343.723L338.297,438.3L311.21,438.3L311.21,353.213L292.52,353.213L292.52,438.3L266.743,438.3L266.743,353.213L248.056,353.213L248.056,438.3L222.279,438.3L222.279,353.213L203.592,353.213L203.592,438.3L176.508,438.3L176.508,343.723L134.805,290.386L227.038,290.386L165.828,224.226L124.083,276.676L110.263,259L200.623,137.883ZM257.402,277.381L236.498,332.961L278.305,332.961L257.402,277.381Z" style="fill:url(#_Linear1);"/>
        <path d="M494.797,214.895L494.797,237.609C492.749,265.119 468.861,291.858 427.767,312.312C410.976,320.67 391.503,327.835 370.031,333.475L422.984,265.752C427.486,263.801 431.86,261.773 436.094,259.665C460.775,247.381 481.137,232.244 494.797,214.895ZM20.09,215.255C33.746,232.454 53.994,247.466 78.504,259.666C82.838,261.823 87.315,263.9 91.93,265.893L144.826,333.543C123.252,327.893 103.69,320.703 86.83,312.313C47.15,292.562 23.515,266.951 20.09,240.445L20.09,215.255Z" style="fill:rgb(159,14,14);"/>
    </g>
    <defs>
        <linearGradient id="_Linear1" x1="0" y1="0" x2="1" y2="0" gradientUnits="userSpaceOnUse" gradientTransform="matrix(294.279,0,0,300.417,110.263,288.091)"><stop offset="0" style="stop-color:rgb(255,107,0);stop-opacity:1"/><stop offset="1" style="stop-color:rgb(192,0,0);stop-opacity:1"/></linearGradient>
    </defs>
</svg>
